svg/color/foin.svg

<?xml version="1.0" encoding="UTF-8" ?>
<!DOCTYPE svg PUBLIC "-//W3C//DTD SVG 1.1//EN" "http://www.w3.org/Graphics/SVG/1.1/DTD/svg11.dtd">
<svg width="250pt" height="250pt" viewBox="0 0 250 250" version="1.1" xmlns="http://www.w3.org/2000/svg">
<g id="#fdfefeff">
<path fill="#fdfefe" opacity="1.00" d=" M 0.00 0.00 L 250.00 0.00 L 250.00 250.00 L 0.00 250.00 L 0.00 0.00 M 230.32 3.42 C 209.54 17.71 182.80 15.62 158.99 14.14 C 128.66 13.80 98.32 14.10 67.99 13.99 C 54.13 14.21 37.70 15.67 28.99 28.00 C 15.69 46.02 24.40 69.68 22.08 90.19 C 29.97 80.34 42.94 77.37 54.98 77.02 C 103.32 76.91 151.66 77.11 200.00 76.94 C 212.37 76.52 227.33 70.90 230.60 57.63 C 231.07 39.99 231.68 19.08 230.32 3.42 M 226.28 81.36 C 212.23 89.21 196.17 93.55 180.00 92.02 C 138.33 92.03 96.66 91.91 55.00 92.07 C 42.58 92.40 29.37 97.83 22.97 108.96 C 13.11 126.66 19.98 147.99 18.08 167.16 C 24.68 160.97 33.68 156.39 43.10 155.19 C 94.59 154.37 146.15 155.87 197.60 154.45 C 209.56 153.95 222.97 148.07 226.91 135.91 C 226.66 118.11 227.91 97.22 226.28 81.36 M 51.39 170.51 C 40.81 171.74 29.22 176.16 23.99 186.02 C 13.07 202.13 19.87 222.90 18.01 241.04 C 15.50 251.75 21.83 241.70 24.27 240.27 C 43.61 227.11 69.04 236.41 89.88 231.80 C 89.72 211.51 90.85 190.60 89.31 170.68 C 77.27 168.79 63.82 170.23 51.39 170.51 Z" />
</g>
<g id="#2357a5ff">
<path fill="#2357a5" opacity="1.00" d=" M 230.32 3.42 C 231.68 19.08 231.07 39.99 230.60 57.63 C 227.33 70.90 212.37 76.52 200.00 76.94 C 151.66 77.11 103.32 76.91 54.98 77.02 C 42.94 77.37 29.97 80.34 22.08 90.19 C 24.40 69.68 15.69 46.02 28.99 28.00 C 37.70 15.67 54.13 14.21 67.99 13.99 C 98.32 14.10 128.66 13.80 158.99 14.14 C 182.80 15.62 209.54 17.71 230.32 3.42 Z" />
<path fill="#2357a5" opacity="1.00" d=" M 226.28 81.36 C 227.91 97.22 226.66 118.11 226.91 135.91 C 222.97 148.07 209.56 153.95 197.60 154.45 C 146.15 155.87 94.59 154.37 43.10 155.19 C 33.68 156.39 24.68 160.97 18.08 167.16 C 19.98 147.99 13.11 126.66 22.97 108.96 C 29.37 97.83 42.58 92.40 55.00 92.07 C 96.66 91.91 138.33 92.03 180.00 92.02 C 196.17 93.55 212.23 89.21 226.28 81.36 Z" />
<path fill="#2357a5" opacity="1.00" d=" M 51.39 170.51 C 63.82 170.23 77.27 168.79 89.31 170.68 C 90.85 190.60 89.72 211.51 89.88 231.80 C 69.04 236.41 43.61 227.11 24.27 240.27 C 21.83 241.70 15.50 251.75 18.01 241.04 C 19.87 222.90 13.07 202.13 23.99 186.02 C 29.22 176.16 40.81 171.74 51.39 170.51 Z" />
</g>
</svg>

<?xml version="1.0" encoding="utf-8"?>
<!-- Generator: Adobe Illustrator 26.0.3, SVG Export Plug-In . SVG Version: 6.00 Build 0)  -->
<svg version="1.1" id="Layer_1" xmlns="http://www.w3.org/2000/svg" xmlns:xlink="http://www.w3.org/1999/xlink" x="0px" y="0px"
	 viewBox="0 0 250 250" style="enable-background:new 0 0 250 250;" xml:space="preserve">
<style type="text/css">
	.st0{fill:#2357A5;}
</style>
<g id="_x23_2357a5ff">
	<path class="st0" d="M230.3,3.4c1.4,15.7,0.8,36.6,0.3,54.2c-3.3,13.3-18.2,18.9-30.6,19.3c-48.3,0.2-96.7,0-145,0.1
		c-12,0.4-25,3.3-32.9,13.2C24.4,69.7,15.7,46,29,28c8.7-12.3,25.1-13.8,39-14c30.3,0.1,60.7-0.2,91,0.2
		C182.8,15.6,209.5,17.7,230.3,3.4z"/>
	<path class="st0" d="M226.3,81.4c1.6,15.9,0.4,36.8,0.6,54.6c-3.9,12.2-17.4,18-29.3,18.5c-51.5,1.4-103-0.1-154.5,0.7
		c-9.4,1.2-18.4,5.8-25,12c1.9-19.2-5-40.5,4.9-58.2c6.4-11.1,19.6-16.6,32-16.9c41.7-0.2,83.3,0,125-0.1
		C196.2,93.6,212.2,89.2,226.3,81.4z"/>
	<path class="st0" d="M51.4,170.5c12.4-0.3,25.9-1.7,37.9,0.2c1.5,19.9,0.4,40.8,0.6,61.1c-20.8,4.6-46.3-4.7-65.6,8.5
		c-2.4,1.4-8.8,11.5-6.3,0.8c1.9-18.1-4.9-38.9,6-55C29.2,176.2,40.8,171.7,51.4,170.5z"/>
</g>
</svg>
